icons/travel-luggage-1-filled.svg

<svg viewBox="0 0 24 24"><path fill="currentColor" d="M9 19.4a1 1 0 0 0-2 0zm-2 1.6a1 1 0 1 0 2 0zm8.7 0a1 1 0 1 0 2 0zm-5-14.7a1 1 0 1 0-2 0zm-2 9.8a1 1 0 1 0 2 0zm6.6-9.8a1 1 0 1 0-2 0zm-2 9.8a1 1 0 1 0 2 0zm-6.4 3.3v1.6h2v-1.6zm8.8 0v1.6h2v-1.6zm-7-13.1v9.8h2v-9.8zm4.6 0v9.8h2v-9.8zm-6-2.3h9.4v-2h-9.4zm10.7 1.2v12h2v-12zm-1.3 13.2h-9.4v2h9.4zm-10.7-1.2v-12h-2v12zm1.3 1.2q-1.2-.2-1.3-1.2h-2c0 1.8 1.6 3.2 3.3 3.2zm10.7-1.2q0 1-1.3 1.2v2c1.7 0 3.3-1.4 3.3-3.2zm-1.3-13.2q1.3.1 1.3 1.2h2c0-1.8-1.6-3.2-3.3-3.2zm-9.4-2c-1.7 0-3.3 1.4-3.3 3.2h2q0-1 1.3-1.2z"/></svg>

<svg viewBox="0 0 24 24"><path fill="currentColor" d="M9 19.4a1 1 0 0 0-2 0zM7 21a1 1 0 1 0 2 0zm8.7 0a1 1 0 1 0 2 0zm-5-14.7a1 1 0 1 0-2 0zm-2 9.8a1 1 0 1 0 2 0zm6.6-9.8a1 1 0 1 0-2 0zm-2 9.8a1 1 0 1 0 2 0zM7 19.4V21h2v-1.6zm8.8 0V21h2v-1.6zm-7-13.1V16h2V6.3zm4.6 0V16h2V6.3zM7.3 4h9.4V2H7.3zM18 5.2v12h2v-12zm-1.3 13.2H7.3v2h9.4zM6 17.2v-12H4v12zm1.3 1.2q-1.2-.2-1.3-1.2H4c0 1.8 1.6 3.2 3.3 3.2zM18 17.2q0 1-1.3 1.2v2c1.7 0 3.3-1.4 3.3-3.2zM16.7 4q1.3.1 1.3 1.2h2C20 3.4 18.4 2 16.7 2zM7.3 2C5.6 2 4 3.4 4 5.2h2q0-1 1.3-1.2z"/></svg>
